packages/sources/assets/src/assets/mastercard-full.svg

<svg width="58" height="40" viewBox="0 0 58 40" fill="none" xmlns="http://www.w3.org/2000/svg">
<rect x="0.5" y="0.5" width="57" height="39" rx="3.5" fill="white" stroke="#F3F3F3"/>
<path fill-rule="evenodd" clip-rule="evenodd" d="M21.2489 30.8906V32.3674V33.8443H20.6016V33.4857C20.3963 33.7517 20.0848 33.9186 19.6614 33.9186C18.8266 33.9186 18.1722 33.27 18.1722 32.3674C18.1722 31.4656 18.8266 30.8163 19.6614 30.8163C20.0848 30.8163 20.3963 30.9832 20.6016 31.2492V30.8906H21.2489ZM19.7419 31.4218C19.1816 31.4218 18.8387 31.8483 18.8387 32.3674C18.8387 32.8866 19.1816 33.3131 19.7419 33.3131C20.2773 33.3131 20.6387 32.905 20.6387 32.3674C20.6387 31.8299 20.2773 31.4218 19.7419 31.4218ZM43.1228 32.3674C43.1228 31.8483 43.4657 31.4218 44.026 31.4218C44.5621 31.4218 44.9228 31.8299 44.9228 32.3674C44.9228 32.905 44.5621 33.3131 44.026 33.3131C43.4657 33.3131 43.1228 32.8866 43.1228 32.3674ZM45.5338 29.7044V32.3674V33.8443H44.8858V33.4857C44.6804 33.7517 44.3689 33.9186 43.9455 33.9186C43.1107 33.9186 42.4563 33.27 42.4563 32.3674C42.4563 31.4656 43.1107 30.8163 43.9455 30.8163C44.3689 30.8163 44.6804 30.9832 44.8858 31.2492V29.7044H45.5338ZM29.2838 31.3914C29.7008 31.3914 29.9688 31.6509 30.0373 32.1079H28.4925C28.5616 31.6814 28.8225 31.3914 29.2838 31.3914ZM27.8138 32.3674C27.8138 31.4465 28.424 30.8163 29.2966 30.8163C30.1307 30.8163 30.7038 31.4465 30.7102 32.3674C30.7102 32.4537 30.7038 32.5344 30.6974 32.6143H28.4868C28.5802 33.1462 28.9601 33.3379 29.3771 33.3379C29.6758 33.3379 29.9938 33.2261 30.2433 33.0288L30.5605 33.5048C30.1991 33.8075 29.7885 33.9186 29.3401 33.9186C28.449 33.9186 27.8138 33.3068 27.8138 32.3674ZM37.1126 32.3674C37.1126 31.8483 37.4555 31.4218 38.0158 31.4218C38.5511 31.4218 38.9126 31.8299 38.9126 32.3674C38.9126 32.905 38.5511 33.3131 38.0158 33.3131C37.4555 33.3131 37.1126 32.8866 37.1126 32.3674ZM39.5228 30.8906V32.3674V33.8443H38.8755V33.4857C38.6695 33.7517 38.3587 33.9186 37.9352 33.9186C37.1004 33.9186 36.446 33.27 36.446 32.3674C36.446 31.4656 37.1004 30.8163 37.9352 30.8163C38.3587 30.8163 38.6695 30.9832 38.8755 31.2492V30.8906H39.5228ZM33.4569 32.3674C33.4569 33.2636 34.0857 33.9186 35.0452 33.9186C35.4936 33.9186 35.7923 33.8196 36.116 33.5663L35.8051 33.0472C35.5621 33.2205 35.3068 33.3131 35.026 33.3131C34.5091 33.3068 34.1292 32.9361 34.1292 32.3674C34.1292 31.7988 34.5091 31.4281 35.026 31.4218C35.3068 31.4218 35.5621 31.5144 35.8051 31.6877L36.116 31.1685C35.7923 30.9153 35.4936 30.8163 35.0452 30.8163C34.0857 30.8163 33.4569 31.4713 33.4569 32.3674ZM41.0177 31.2492C41.1859 30.9896 41.429 30.8163 41.8026 30.8163C41.9337 30.8163 42.1205 30.8411 42.2638 30.8969L42.0642 31.5024C41.9273 31.4465 41.7904 31.4281 41.6593 31.4281C41.2358 31.4281 41.0241 31.6997 41.0241 32.1885V33.8443H40.3761V30.8906H41.0177V31.2492ZM24.4505 31.1254C24.1389 30.9217 23.7098 30.8163 23.2364 30.8163C22.4822 30.8163 21.9967 31.1749 21.9967 31.762C21.9967 32.2437 22.3582 32.5407 23.024 32.6334L23.3298 32.6765C23.6848 32.7261 23.8524 32.8187 23.8524 32.9856C23.8524 33.2141 23.6157 33.3442 23.1737 33.3442C22.7253 33.3442 22.4017 33.2021 22.1835 33.0351L21.8784 33.5352C22.2334 33.7948 22.6818 33.9186 23.1673 33.9186C24.027 33.9186 24.5253 33.5168 24.5253 32.9545C24.5253 32.4353 24.1332 32.1637 23.4852 32.0711L23.1801 32.0272C22.9 31.9904 22.6754 31.9353 22.6754 31.7372C22.6754 31.5208 22.8871 31.3914 23.2421 31.3914C23.6221 31.3914 23.9899 31.5335 24.1703 31.6446L24.4505 31.1254ZM32.0184 31.2492C32.1859 30.9896 32.429 30.8163 32.8025 30.8163C32.9337 30.8163 33.1205 30.8411 33.2637 30.8969L33.0641 31.5024C32.9273 31.4465 32.7904 31.4281 32.6592 31.4281C32.2358 31.4281 32.0241 31.6997 32.0241 32.1885V33.8443H31.3768V30.8906H32.0184V31.2492ZM27.2784 30.8906H26.2198V29.9944H25.5654V30.8906H24.9616V31.4776H25.5654V32.8251C25.5654 33.5105 25.8334 33.9186 26.5991 33.9186C26.8799 33.9186 27.2036 33.8323 27.4089 33.6901L27.2221 33.1398C27.0289 33.2509 26.8172 33.3068 26.649 33.3068C26.3253 33.3068 26.2198 33.1087 26.2198 32.8123V31.4776H27.2784V30.8906ZM17.5997 31.9904V33.8443H16.9453V32.2005C16.9453 31.6997 16.7336 31.4218 16.2916 31.4218C15.8617 31.4218 15.563 31.6941 15.563 32.2069V33.8443H14.9086V32.2005C14.9086 31.6997 14.6912 31.4218 14.2613 31.4218C13.8186 31.4218 13.5321 31.6941 13.5321 32.2069V33.8443H12.8784V30.8906H13.5264V31.2548C13.7695 30.909 14.0803 30.8163 14.3982 30.8163C14.853 30.8163 15.1767 31.0144 15.382 31.3418C15.6564 30.9274 16.0485 30.8099 16.4285 30.8163C17.1513 30.8227 17.5997 31.2923 17.5997 31.9904Z" fill="#231F20"/>
<path d="M34.0465 25.8715H24.2359V8.3783H34.0465V25.8715Z" fill="#FF5F00"/>
<path d="M24.8583 17.1253C24.8583 13.5767 26.5328 10.4157 29.1405 8.37867C27.2336 6.88907 24.8269 5.99998 22.2114 5.99998C16.0194 5.99998 11 10.9809 11 17.1253C11 23.2697 16.0194 28.2506 22.2114 28.2506C24.8269 28.2506 27.2336 27.3615 29.1405 25.8719C26.5328 23.8349 24.8583 20.6739 24.8583 17.1253Z" fill="#EB001B"/>
<path d="M47.2818 17.1253C47.2818 23.2697 42.2624 28.2506 36.0704 28.2506C33.4548 28.2506 31.0482 27.3615 29.1405 25.8719C31.7489 23.8349 33.4235 20.6739 33.4235 17.1253C33.4235 13.5767 31.7489 10.4157 29.1405 8.37867C31.0482 6.88907 33.4548 5.99998 36.0704 5.99998C42.2624 5.99998 47.2818 10.9809 47.2818 17.1253Z" fill="#F79E1B"/>
</svg>

<svg width="58" height="40" fill="none" xmlns="http://www.w3.org/2000/svg"><rect x=".5" y=".5" width="57" height="39" rx="3.5" fill="#fff" stroke="#F3F3F3"/><path fill-rule="evenodd" clip-rule="evenodd" d="M21.249 30.89v2.954h-.647v-.358c-.206.266-.517.433-.94.433-.835 0-1.49-.649-1.49-1.552 0-.901.655-1.55 1.49-1.55.423 0 .734.166.94.432v-.358h.647Zm-1.507.532c-.56 0-.903.426-.903.945 0 .52.343.946.903.946.535 0 .897-.408.897-.946 0-.537-.362-.945-.897-.945Zm23.38.945c0-.519.344-.945.904-.945.536 0 .897.408.897.945 0 .538-.36.946-.897.946-.56 0-.903-.426-.903-.946Zm2.412-2.663v4.14h-.648v-.358c-.206.266-.517.433-.94.433-.835 0-1.49-.649-1.49-1.552 0-.901.655-1.55 1.49-1.55.423 0 .734.166.94.432v-1.545h.648Zm-16.25 1.687c.417 0 .685.26.753.717h-1.544c.069-.427.33-.717.79-.717Zm-1.47.976c0-.92.61-1.55 1.483-1.55.834 0 1.407.63 1.413 1.55 0 .087-.006.167-.013.247h-2.21c.093.532.473.724.89.724.299 0 .617-.112.866-.31l.318.477c-.362.302-.773.414-1.22.414-.892 0-1.527-.612-1.527-1.552Zm9.299 0c0-.519.343-.945.903-.945.535 0 .897.408.897.945 0 .538-.362.946-.897.946-.56 0-.903-.426-.903-.946Zm2.41-1.476v2.953h-.648v-.358c-.206.266-.516.433-.94.433-.835 0-1.489-.649-1.489-1.552 0-.901.654-1.55 1.49-1.55.423 0 .733.166.94.432v-.358h.647Zm-6.066 1.476c0 .897.629 1.552 1.588 1.552.449 0 .747-.1 1.071-.353l-.31-.519a1.315 1.315 0 0 1-.78.266c-.517-.006-.897-.377-.897-.946 0-.568.38-.939.897-.945.28 0 .536.092.78.266l.31-.52c-.324-.253-.622-.352-1.07-.352-.96 0-1.59.655-1.59 1.551Zm7.56-1.118a.88.88 0 0 1 .786-.433c.13 0 .318.025.46.08l-.199.606a1.057 1.057 0 0 0-.405-.074c-.423 0-.635.272-.635.76v1.656h-.648v-2.953h.642v.358Zm-16.567-.124c-.311-.203-.74-.309-1.214-.309-.754 0-1.24.359-1.24.946 0 .482.362.779 1.028.871l.306.043c.355.05.522.143.522.31 0 .228-.236.358-.678.358-.449 0-.772-.142-.99-.309l-.306.5c.355.26.804.384 1.29.384.859 0 1.357-.402 1.357-.964 0-.52-.392-.791-1.04-.884l-.305-.044c-.28-.037-.505-.092-.505-.29 0-.216.212-.346.567-.346.38 0 .748.143.928.254l.28-.52Zm7.568.124a.878.878 0 0 1 .785-.433c.13 0 .318.025.46.08l-.199.606a1.056 1.056 0 0 0-.405-.074c-.423 0-.635.272-.635.76v1.656h-.647v-2.953h.641v.358Zm-4.74-.358H26.22v-.897h-.655v.897h-.603v.587h.603v1.347c0 .685.268 1.094 1.034 1.094.28 0 .605-.087.81-.229l-.187-.55a1.205 1.205 0 0 1-.573.167c-.324 0-.43-.198-.43-.495v-1.334h1.06v-.587Zm-9.678 1.1v1.853h-.655V32.2c0-.5-.211-.778-.653-.778-.43 0-.729.272-.729.785v1.637h-.654V32.2c0-.5-.218-.778-.648-.778-.442 0-.729.272-.729.785v1.637h-.654v-2.953h.648v.364c.244-.346.554-.439.872-.439.455 0 .779.198.984.526.274-.415.667-.532 1.046-.526.723.007 1.172.476 1.172 1.174Z" fill="#231F20"/><path d="M34.047 25.872h-9.811V8.378h9.81v17.494Z" fill="#FF5F00"/><path d="M24.858 17.125c0-3.548 1.675-6.71 4.282-8.746A11.22 11.22 0 0 0 22.212 6C16.02 6 11 10.98 11 17.125s5.02 11.126 11.211 11.126c2.616 0 5.023-.89 6.93-2.38-2.608-2.036-4.283-5.197-4.283-8.746" fill="#EB001B"/><path d="M47.282 17.125c0 6.145-5.02 11.126-11.212 11.126-2.615 0-5.022-.89-6.93-2.38 2.609-2.036 4.283-5.197 4.283-8.746 0-3.548-1.674-6.71-4.283-8.746A11.223 11.223 0 0 1 36.07 6c6.192 0 11.212 4.98 11.212 11.125" fill="#F79E1B"/></svg>
